svg/u1f471_1f3fb_200d_2640.svg

<svg viewBox="0 0 128 128" xmlns="http://www.w3.org/2000/svg">
  <g id="hairGroup_1_">
    <g id="hair_x5F_blond_2_">
      <path d="M64.57,4.12c-41.01,0-40.68,37.92-40.68,38.52c0,24.56,1.88,59.25,11.71,72.9 c3.9,5.41,11.43,5.71,11.43,5.71L64,121.23l16.97,0.03c0,0,7.53-0.3,11.43-5.71c9.83-13.65,11.71-48.34,11.71-72.9 C104.1,42.04,105.58,4.12,64.57,4.12z" fill="#FFE13B"/>
    </g>
    <radialGradient id="hairHighlights_x5F_blond_2_" cx="64" cy="62.6909" gradientUnits="userSpaceOnUse" r="50.1946">
      <stop offset="0.6985" stop-color="#FFEE58" stop-opacity="0"/>
      <stop offset="1" stop-color="#FFEE58"/>
    </radialGradient>
    <path id="hairHighlights_x5F_blond_1_" d="M64.57,4.12 c-41.01,0-40.68,37.92-40.68,38.52c0,24.56,1.88,59.25,11.71,72.9c3.9,5.41,11.43,5.71,11.43,5.71L64,121.23l16.97,0.03 c0,0,7.53-0.3,11.43-5.71c9.83-13.65,11.71-48.34,11.71-72.9C104.1,42.04,105.58,4.12,64.57,4.12z" fill="url(#hairHighlights_x5F_blond_2_)"/>
  </g>
  <g id="shirt">
    <linearGradient id="SVGID_1_" gradientUnits="userSpaceOnUse" x1="64" x2="64" y1="94.2393" y2="122.467">
      <stop offset="0" stop-color="#651FFF"/>
      <stop offset="0.7047" stop-color="#5914F2"/>
      <stop offset="1" stop-color="#530EEB"/>
    </linearGradient>
    <path d="M64.13,94.45c-0.04,0-0.09,0-0.13,0c-25.65,0.03-51.46,7.55-51.46,25.44v4.05h1.5h1.5h96.93 h1.5h1.5v-4.05C115.46,103.02,89.9,94.45,64.13,94.45z" fill="url(#SVGID_1_)"/>
  </g>
  <g id="neck">
    <path d="M64,90.08h-9.08v9.98c0,4.51,3.7,8.17,8.26,8.17h1.65c4.56,0,8.26-3.66,8.26-8.17v-9.98H64z" fill="#EDC391"/>
  </g>
  <g id="face">
    <g id="head">
      <path d="M63.82,14.91L63.82,14.91L63.82,14.91c-17.2,0-33.13,12.79-33.13,39.91 c0,21.79,13.49,34.67,25.23,38.83c2.8,0.99,5.5,1.49,7.9,1.49c2.38,0,5.07-0.49,7.85-1.47c11.76-4.14,25.28-17.03,25.28-38.84 C96.95,27.7,81.02,14.91,63.82,14.91z" fill="#F9DDBD"/>
    </g>
    <path id="nose" d="M67.81,68.05c-0.1-0.04-0.21-0.07-0.32-0.08h-6.99c-0.11,0.01-0.21,0.04-0.32,0.08 c-0.63,0.26-0.98,0.91-0.68,1.61c0.3,0.7,1.69,2.66,4.49,2.66c2.8,0,4.19-1.96,4.49-2.66C68.79,68.97,68.45,68.31,67.81,68.05z" fill="#DBA689"/>
    <g id="eyebrows">
      <path d="M54.8,49.82c-0.93-1.23-3.07-3.01-7.23-3.01s-6.31,1.79-7.23,3.01c-0.41,0.54-0.31,1.17-0.02,1.55 c0.26,0.35,1.04,0.68,1.9,0.39c0.86-0.29,2.54-1.16,5.35-1.18c2.81,0.02,4.49,0.89,5.35,1.18c0.86,0.29,1.64-0.03,1.9-0.39 C55.11,50.99,55.21,50.36,54.8,49.82z" fill="#454140"/>
      <path d="M87.66,49.82c-0.93-1.23-3.07-3.01-7.23-3.01c-4.16,0-6.31,1.79-7.23,3.01 c-0.41,0.54-0.31,1.17-0.02,1.55c0.26,0.35,1.04,0.68,1.9,0.39c0.86-0.29,2.54-1.16,5.35-1.18c2.81,0.02,4.49,0.89,5.35,1.18 c0.86,0.29,1.64-0.03,1.9-0.39C87.97,50.99,88.07,50.36,87.66,49.82z" fill="#454140"/>
    </g>
    <g id="eyes">
      <ellipse cx="80.43" cy="58.87" fill="#312D2D" rx="4.87" ry="5.04"/>
      <ellipse cx="47.57" cy="58.87" fill="#312D2D" rx="4.87" ry="5.04"/>
    </g>
    <path id="mouth" d="M72.32,76.14c-3.15,1.87-13.46,1.87-16.61,0c-1.81-1.07-3.65,0.57-2.9,2.21 c0.74,1.61,6.37,5.36,11.23,5.36s10.42-3.75,11.16-5.36C75.95,76.71,74.12,75.06,72.32,76.14z" fill="#444444"/>
  </g>
  <g id="hairGroup">
    <g id="hair_x5F_blond">
      <path d="M64.57,4.12c-41.01,0-40.68,37.92-40.68,38.52c0,7.76,0.19,16.53,0.75,25.32l6.72-0.02 c-0.06-2.92,1.99-20.97,8.08-22.34c22.36-5.02,35.01-16.89,35.01-16.89c3.29,7.19,13.58,14.19,17.27,16.86 c3.03,2.19,3.96,18.55,3.9,22.38h7.71c0-0.05,0.02-0.1,0.02-0.16c0.56-8.75,0.74-17.46,0.74-25.17 C104.1,42.04,105.58,4.12,64.57,4.12z" fill="#FFE13B"/>
    </g>
    <radialGradient id="hairHighlights_x5F_blond_3_" cx="67.2442" cy="66.7122" gradientTransform="matrix(1 0 0 1.1827 0 -12.1906)" gradientUnits="userSpaceOnUse" r="55.3488">
      <stop offset="0.6985" stop-color="#FFEE58" stop-opacity="0"/>
      <stop offset="1" stop-color="#FFEE58"/>
    </radialGradient>
    <path id="hairHighlights_x5F_blond" d="M64.57,4.12 c-41.01,0-40.68,37.92-40.68,38.52c0,7.76,0.19,16.53,0.75,25.32l6.72-0.02c-0.06-2.92,1.99-20.97,8.08-22.34 c22.36-5.02,35.01-16.89,35.01-16.89c3.29,7.19,13.58,14.19,17.27,16.86c3.03,2.19,3.96,18.55,3.9,22.38h7.71 c0-0.05,0.02-0.1,0.02-0.16c0.56-8.75,0.74-17.46,0.74-25.17C104.1,42.04,105.58,4.12,64.57,4.12z" fill="url(#hairHighlights_x5F_blond_3_)"/>
  </g>
</svg>

<svg viewBox="0 0 128 128" xmlns="http://www.w3.org/2000/svg">
  <defs>
    <linearGradient id="SVGID_1_" gradientUnits="userSpaceOnUse" x1="64" x2="64" y1="94.2393" y2="122.467">
      <stop offset="0" stop-color="#651FFF"/>
      <stop offset="0.7047" stop-color="#5914F2"/>
      <stop offset="1" stop-color="#530EEB"/>
    </linearGradient>
    <radialGradient id="hairHighlights_x5F_blond_2_" cx="64" cy="62.6909" gradientUnits="userSpaceOnUse" r="50.1946">
      <stop offset="0.6985" stop-color="#FFEE58" stop-opacity="0"/>
      <stop offset="1" stop-color="#FFEE58"/>
    </radialGradient>
    <radialGradient id="hairHighlights_x5F_blond_3_" cx="67.2442" cy="56.404768" gradientTransform="matrix(1 0 0 1.1827 0 0)" gradientUnits="userSpaceOnUse" r="55.3488">
      <stop offset="0.6985" stop-color="#FFEE58" stop-opacity="0"/>
      <stop offset="1" stop-color="#FFEE58"/>
    </radialGradient>
  </defs>
  <path d="M64.57,4.12 C23.56,4.12 23.89,42.04 23.89,42.64 C23.89,67.2 25.77,101.89 35.6,115.54 C39.5,120.95 47.03,121.25 47.03,121.25 L64,121.23 L80.97,121.26 C80.97,121.26 88.5,120.96 92.4,115.55 C102.23,101.9 104.11,67.21 104.11,42.65 C104.1,42.04 105.58,4.12 64.57,4.12 Z" fill="#FFE13B"/>
  <path id="hairHighlights_x5F_blond_1_" d="M64.57,4.12 C23.56,4.12 23.89,42.04 23.89,42.64 C23.89,67.2 25.77,101.89 35.6,115.54 C39.5,120.95 47.03,121.25 47.03,121.25 L64,121.23 L80.97,121.26 C80.97,121.26 88.5,120.96 92.4,115.55 C102.23,101.9 104.11,67.21 104.11,42.65 C104.1,42.04 105.58,4.12 64.57,4.12 Z" fill="url(#hairHighlights_x5F_blond_2_)"/>
  <path d="M64.13,94.45 C64.09,94.45 64.04,94.45 64,94.45 C38.35,94.48 12.54,102 12.54,119.89 L12.54,123.94 L14.04,123.94 L15.54,123.94 L112.47,123.94 L113.97,123.94 L115.47,123.94 L115.47,119.89 C115.46,103.02 89.9,94.45 64.13,94.45 Z" fill="url(#SVGID_1_)"/>
  <path d="M64,90.08 L54.92,90.08 L54.92,100.06 C54.92,104.57 58.62,108.23 63.18,108.23 L64.83,108.23 C69.39,108.23 73.09,104.57 73.09,100.06 L73.09,90.08 L64,90.08 Z" fill="#EDC391"/>
  <path d="M63.82,14.91 L63.82,14.91 L63.82,14.91 C46.62,14.91 30.69,27.7 30.69,54.82 C30.69,76.61 44.18,89.49 55.92,93.65 C58.72,94.64 61.42,95.14 63.82,95.14 C66.2,95.14 68.89,94.65 71.67,93.67 C83.43,89.53 96.95,76.64 96.95,54.83 C96.95,27.7 81.02,14.91 63.82,14.91 Z" fill="#F9DDBD"/>
  <path id="nose" d="M67.81,68.05 C67.71,68.01 67.6,67.98 67.49,67.97 L60.5,67.97 C60.39,67.98 60.29,68.01 60.18,68.05 C59.55,68.31 59.2,68.96 59.5,69.66 C59.8,70.36 61.19,72.32 63.99,72.32 C66.79,72.32 68.18,70.36 68.48,69.66 C68.79,68.97 68.45,68.31 67.81,68.05 Z" fill="#DBA689"/>
  <path d="M54.8,49.82 C53.87,48.59 51.73,46.81 47.57,46.81 C43.41,46.81 41.26,48.6 40.34,49.82 C39.93,50.36 40.03,50.99 40.32,51.37 C40.58,51.72 41.36,52.05 42.22,51.76 C43.08,51.47 44.76,50.6 47.57,50.58 C50.38,50.6 52.06,51.47 52.92,51.76 C53.78,52.05 54.56,51.73 54.82,51.37 C55.11,50.99 55.21,50.36 54.8,49.82 Z" fill="#454140"/>
  <path d="M87.66,49.82 C86.73,48.59 84.59,46.81 80.43,46.81 C76.27,46.81 74.12,48.6 73.2,49.82 C72.79,50.36 72.89,50.99 73.18,51.37 C73.44,51.72 74.22,52.05 75.08,51.76 C75.94,51.47 77.62,50.6 80.43,50.58 C83.24,50.6 84.92,51.47 85.78,51.76 C86.64,52.05 87.42,51.73 87.68,51.37 C87.97,50.99 88.07,50.36 87.66,49.82 Z" fill="#454140"/>
  <path d="M85.3,58.87 A4.87 5.04 0 1 1 75.56,58.87 A4.87 5.04 0 1 1 85.3,58.87 Z" fill="#312D2D"/>
  <path d="M52.44,58.87 A4.87 5.04 0 1 1 42.7,58.87 A4.87 5.04 0 1 1 52.44,58.87 Z" fill="#312D2D"/>
  <path id="mouth" d="M72.32,76.14 C69.17,78.01 58.86,78.01 55.71,76.14 C53.9,75.07 52.06,76.71 52.81,78.35 C53.55,79.96 59.18,83.71 64.04,83.71 C68.9,83.71 74.46,79.96 75.2,78.35 C75.95,76.71 74.12,75.06 72.32,76.14 Z" fill="#444444"/>
  <path d="M64.57,4.12 C23.56,4.12 23.89,42.04 23.89,42.64 C23.89,50.4 24.08,59.17 24.64,67.96 L31.36,67.94 C31.3,65.02 33.35,46.97 39.44,45.6 C61.8,40.58 74.45,28.71 74.45,28.71 C77.74,35.9 88.03,42.9 91.72,45.57 C94.75,47.76 95.68,64.12 95.62,67.95 L103.33,67.95 C103.33,67.9 103.35,67.85 103.35,67.79 C103.91,59.04 104.09,50.33 104.09,42.62 C104.1,42.04 105.58,4.12 64.57,4.12 Z" fill="#FFE13B"/>
  <path id="hairHighlights_x5F_blond" d="M64.57,4.12 C23.56,4.12 23.89,42.04 23.89,42.64 C23.89,50.4 24.08,59.17 24.64,67.96 L31.36,67.94 C31.3,65.02 33.35,46.97 39.44,45.6 C61.8,40.58 74.45,28.71 74.45,28.71 C77.74,35.9 88.03,42.9 91.72,45.57 C94.75,47.76 95.68,64.12 95.62,67.95 L103.33,67.95 C103.33,67.9 103.35,67.85 103.35,67.79 C103.91,59.04 104.09,50.33 104.09,42.62 C104.1,42.04 105.58,4.12 64.57,4.12 Z" fill="url(#hairHighlights_x5F_blond_3_)"/>
</svg>
